Papirus/24x24/apps/QOwnNotes.svg

<svg xmlns="http://www.w3.org/2000/svg" width="24" height="24" version="1">
 <path style="fill:#303d75" d="m 21,2 c 0.554,0 1,0.446 1,1 l 0,18 c 0,0.554 -0.446,1 -1,1 L 10,22 2,14 2,3 C 2,2.446 2.446,2 3,2 Z"/>
 <path style="opacity:0.2" d="M 12,5.4999982 A 3.5000006,3.5000006 0 0 0 8.5000001,8.999998 3.5000006,3.5000006 0 0 0 8.5400401,9.500975 2.5000004,2.5000004 0 0 0 8.5000001,9.5 a 2.5000004,2.5000004 0 0 0 -2.5,2.5 2.5000004,2.5000004 0 0 0 2.5,2.5 L 15,14.5 a 3.0000005,3.0000005 0 0 0 3,-3 A 3.0000005,3.0000005 0 0 0 15.465821,8.539062 3.5000006,3.5000006 0 0 0 12,5.4999997 Z m -10e-4,1 10e-4,0 c 1.259674,0.0018 2.3087,0.9220846 2.47461,2.1708988 a 1.0001,1.0001 0 0 0 0.835937,0.856445 c 0.979046,0.153886 1.688569,0.982567 1.689453,1.973633 -5.5e-4,1.115932 -0.883927,1.999022 -2,1.999023 l -6.4999999,0 c -0.8402705,-10e-7 -1.499999,-0.659729 -1.5,-1.5 -1e-6,-0.840272 0.659728,-1.499999 1.5,-1.5 0.001,3.5e-5 0.00195,-3.7e-5 0.00295,0 a 1.0001,1.0001 0 0 0 1.025391,-1.15039 C 9.5104951,9.233096 9.5012101,9.115898 9.5000001,8.998045 9.5010701,7.6067658 10.607607,6.5005282 11.999024,6.4999982 Z"/>
 <path style="fill:#44559e" d="m 2,14 7,0 c 0.5523,0 1,0.44772 1,1 l 0,7 z"/>
 <path style="opacity:0.1;fill:#ffffff" d="m 21,2 c 0.554,0 1,0.446 1,1 l 0,0.5 c 0,-0.554 -0.446,-1 -1,-1 l -18,0 c -0.554,0 -1,0.446 -1,1 L 2,3 C 2,2.446 2.446,2 3,2 Z"/>
 <path style="fill:#5d8cb9" d="M 12,4.9999982 A 3.5000006,3.5000006 0 0 0 8.5000001,8.499998 3.5000006,3.5000006 0 0 0 8.5400401,9.000975 2.5000004,2.5000004 0 0 0 8.5000001,9 a 2.5000004,2.5000004 0 0 0 -2.5,2.5 2.5000004,2.5000004 0 0 0 2.5,2.5 L 15,14 A 3.0000005,3.0000005 0 0 0 18,11 3.0000005,3.0000005 0 0 0 15.465821,8.039062 3.5000006,3.5000006 0 0 0 12,4.9999997 Z m -10e-4,1 10e-4,0 c 1.259674,0.0018 2.3087,0.9220846 2.47461,2.1708988 a 1.0001,1.0001 0 0 0 0.835937,0.856445 c 0.979046,0.153886 1.688569,0.982567 1.689453,1.973633 -5.5e-4,1.115932 -0.883927,1.999022 -2,1.999023 l -6.4999999,0 c -0.8402705,-10e-7 -1.499999,-0.659729 -1.5,-1.5 -1e-6,-0.840272 0.659728,-1.499999 1.5,-1.5 0.001,3.5e-5 0.00195,-3.7e-5 0.00295,0 a 1.0001,1.0001 0 0 0 1.025391,-1.15039 C 9.5104951,8.733096 9.5012101,8.615898 9.5000001,8.498045 9.5010701,7.1067658 10.607607,6.0005282 11.999024,5.9999982 Z"/>
 <path style="opacity:0.1;fill:#ffffff" d="m 9,14 c 0.5523,0 1,0.44772 1,1 l 0,0.5 c 0,-0.5523 -0.44772,-1 -1,-1 L 2.5,14.5 2,14 9,14 Z"/>
 <path style="opacity:0.2" d="M 2.998,14.998 10,22 21,22 c 0.554,0 1,-0.446 1,-1 l 0,0.5 c 0,0.554 -0.446,1 -1,1 l -11,0 -7.486,-7.486 z"/>
</svg>

<svg xmlns="http://www.w3.org/2000/svg" width="24" height="24" version="1">
 <path style="opacity:0.2" d="M 21,2.5 C 21.554,2.5 22,2.946 22,3.5 V 21.5 C 22,22.054 21.554,22.5 21,22.5 H 10 L 2,14.5 V 3.5 C 2,2.946 2.446,2.5 3,2.5 Z"/>
 <path style="fill:#303d75" d="M 21,2 C 21.554,2 22,2.446 22,3 V 21 C 22,21.554 21.554,22 21,22 H 10 L 2,14 V 3 C 2,2.446 2.446,2 3,2 Z"/>
 <path style="opacity:0.2" d="M 12,5.5 A 3.5,3.5 0 0 0 8.5,9 3.5,3.5 0 0 0 8.54,9.501 2.5,2.5 0 0 0 8.5,9.5 2.5,2.5 0 0 0 6,12 2.5,2.5 0 0 0 8.5,14.5 H 15 A 3,3 0 0 0 18,11.5 3,3 0 0 0 15.466,8.5391 3.5,3.5 0 0 0 12,5.5 Z M 11.999,6.5 H 12 C 13.26,6.5018 14.309,7.4221 14.475,8.6709 A 1.0001,1.0001 0 0 0 15.311,9.5273 C 16.29,9.6812 16.999,10.51 17,11.501 16.999,12.617 16.116,13.5 15,13.5 H 8.5 C 7.6597,13.5 7,12.84 7,12 7,11.16 7.6597,10.5 8.5,10.5 8.501,10.5 8.502,10.5 8.503,10.5 A 1.0001,1.0001 0 0 0 9.5283,9.3496 C 9.5105,9.2331 9.5012,9.1159 9.5,8.998 9.5011,7.6068 10.608,6.5005 11.999,6.5 Z"/>
 <path style="fill:#44559e" d="M 2,14 H 9 C 9.5523,14 10,14.448 10,15 V 22 Z"/>
 <path style="opacity:0.1;fill:#ffffff" d="M 21,2 C 21.554,2 22,2.446 22,3 V 3.5 C 22,2.946 21.554,2.5 21,2.5 H 3 C 2.446,2.5 2,2.946 2,3.5 V 3 C 2,2.446 2.446,2 3,2 Z"/>
 <path style="fill:#5d8cb9" d="M 12,5 A 3.5,3.5 0 0 0 8.5,8.5 3.5,3.5 0 0 0 8.54,9.001 2.5,2.5 0 0 0 8.5,9 2.5,2.5 0 0 0 6,11.5 2.5,2.5 0 0 0 8.5,14 H 15 A 3,3 0 0 0 18,11 3,3 0 0 0 15.466,8.0391 3.5,3.5 0 0 0 12,5 Z M 11.999,6 H 12 C 13.26,6.0018 14.309,6.9221 14.475,8.1709 A 1.0001,1.0001 0 0 0 15.311,9.0273 C 16.29,9.1812 16.999,10.01 17,11.001 16.999,12.117 16.116,13 15,13 H 8.5 C 7.6597,13 7,12.34 7,11.5 7,10.66 7.6597,10 8.5,10 8.501,10 8.502,10 8.503,10 A 1.0001,1.0001 0 0 0 9.5283,8.8496 C 9.5105,8.7331 9.5012,8.6159 9.5,8.498 9.5011,7.1068 10.608,6.0005 11.999,6 Z"/>
 <path style="opacity:0.1;fill:#ffffff" d="M 9,14 C 9.5523,14 10,14.448 10,15 V 15.5 C 10,14.948 9.5523,14.5 9,14.5 H 2.5 L 2,14 Z"/>
</svg>
